X: 28439
T: Mullingar Lea, The
R: reel
M: 4/4
K: Gmixolydian
|:BGGA G^FDE|F2AF cFAc|BGGA G^FDE|1 FAdc BGGA:|2 FAdc BGBd||
|:gfgd Bcde|fefc ABcA|1 gfgd BcdB|dgfa gaba:|2 fdcA D^CDE|FAdc BGG2||

